assets/img/conception.svg

<svg width="261" height="216" viewBox="0 0 261 216" fill="none" xmlns="http://www.w3.org/2000/svg">
<path d="M189.996 167.918C176.758 167.918 166.328 157.029 166.328 144.125C166.328 130.817 177.159 120.332 189.996 120.332C203.234 120.332 213.664 131.22 213.664 144.125C213.664 157.029 203.234 167.918 189.996 167.918ZM237.332 24.7559V144.125C237.332 117.912 216.071 96.5385 189.996 96.5385C163.921 96.5385 142.66 117.912 142.66 144.125H23.9181V24.7559H237.332L213.664 0.96283H23.9181H0.25V24.7559V144.125V167.918H23.9181H148.677C155.095 178.806 165.525 186.872 177.961 190.098V215.504H201.629V190.098C214.065 186.872 224.495 178.806 230.913 167.918H237.332H261V144.125V48.549L237.332 24.7559Z" fill="#292929"/>
<path d="M142.26 48.5492H47.5879V72.3423H142.26V48.5492Z" fill="#292929"/>
<path d="M189.994 48.5492H166.326V72.3423H189.994V48.5492Z" fill="#292929"/>
</svg>

<svg width="261" height="216" fill="none" xmlns="http://www.w3.org/2000/svg"><path d="M189.996 167.918c-13.238 0-23.668-10.889-23.668-23.793 0-13.308 10.831-23.793 23.668-23.793 13.238 0 23.668 10.888 23.668 23.793 0 12.904-10.43 23.793-23.668 23.793Zm47.336-143.162v119.369c0-26.213-21.261-47.587-47.336-47.587s-47.336 21.374-47.336 47.587H23.918V24.755h213.414L213.664.964H.25v166.955h148.427c6.418 10.888 16.848 18.954 29.284 22.18v25.406h23.668v-25.406c12.436-3.226 22.866-11.292 29.284-22.18H261V48.549l-23.668-23.793Z" fill="#292929"/><path d="M142.26 48.55H47.588v23.792h94.672V48.55Zm47.734 0h-23.668v23.792h23.668V48.55Z" fill="#292929"/></svg>
